X:270
T:Old French
Z: id:dc-reel-251
M:C
L:1/8
K:D Major
(3ABc|d2cd BdAF|DFAd f2ed|cdef gfec|defd A2Bc|!
d2cd BdAF|DFAd f2ed|cdef gfec|d2f2 d2:|!
K:A Mixolydian
cd|efed cdcB|AEAc e2dc|BGBd gfed|cAce a2cd|!
efed cdcB|AEAc e2dc|BGBd gfed|c2A2 A2:|!

